svg/furkot/mapbox-maki/triangle_stroked.svg

<svg viewBox="0 0 512 512" xmlns="http://www.w3.org/2000/svg"><path d="m256.991 21.016c-11.473-.37-22.244 5.786-28.16 16.097l-224.244 402.382c-12.712 22.155 2.504 50.372 27.171 50.377h448.485c24.667-.005 39.883-28.222 27.171-50.374l-224.244-402.382c-5.552-9.678-15.411-15.741-26.179-16.1zm-.991 97.807 168.252 304.578h-336.503z"/></svg>

<svg viewBox="0 0 512 512" xmlns="http://www.w3.org/2000/svg"><path d="M 256.991 21.016 C 245.518 20.646 234.747 26.802 228.831 37.113 L 4.587 439.495 C -8.125 461.65 7.091 489.867 31.758 489.872 L 480.243 489.872 C 504.91 489.867 520.126 461.65 507.414 439.498 L 283.17 37.116 C 277.618 27.438 267.759 21.375 256.991 21.016 Z M 256 118.823 L 424.252 423.401 L 87.749 423.401 L 256 118.823 Z"/></svg>
